X: 42592
T: Where Lilies Bloom
R: polka
M: 2/4
K: Dmajor
|:DA BA|d2 dc|B>A Bc|BA FA|DA BA|d2 dc|
B>A B/c/d|ed d2:|:fA eA|dA cA|B>A Bc|BA FA
[1 fA eA|dA cA|B>A B/c/d|ed d2:|2 DA BA|d2 dc|B>A B/c/d|ed d2||

